X: 28188
T: Mrs Webster
R: reel
M: 4/4
K: Bminor
|:Bc|dBfB dBBd|cAeA ceAc|dBfB gBfB|cAec B2:|
Bf|bBfe dBBd|c/B/A ed cAAf|b2 fe dB B/c/d|cAeA cB-Bf|
bBfe d2 B/c/d|cAeA c2 Af|bfge f2 f/e/d|cAec B-||

